svgs/regular/horse.svg

<svg xmlns="http://www.w3.org/2000/svg" viewBox="0 0 576 512"><!--! Font Awesome Pro 6.0.0-alpha3 by @fontawesome - https://fontawesome.com License - https://fontawesome.com/license (Commercial License) --><path d="M464 80c-8.875 0-16 7.125-16 16s7.125 16 16 16s16-7.125 16-16S472.9 80 464 80zM576 102.5c0-11.21-3.888-22.07-11-30.74l-21.75-26.5c15.99-5.371 29.09-18.75 32.6-35.61c1.035-4.97-2.897-9.641-7.974-9.641l-135.9 .0009C363.6 .001 306.1 48 291.6 112H176c-38.12 0-71.75 19.25-92 48.38C37.38 162.5 .0001 200.9 .0001 248l.0001 48C.0002 309.3 10.75 320 24 320s24-10.75 24-23.1L47.1 248c0-13.25 6.883-24.4 16.76-31.65c-.125 2.5-.758 5.024-.758 7.649c0 30.12 11.88 58.12 32.13 78.62l-12.88 43.75c-4 13.25-4.375 27.38-1.125 40.87l24.12 100.3C109.8 501.9 122.6 512 137.4 512h74.75c20.85 0 36.13-19.62 31.01-39.84l-25.51-100.8L227 345l61 13.5V480c0 17.6 14.4 32 32 32h80c17.6 0 32-14.4 32-32v-155.6c20-22.5 31.25-51.13 32-81.62V234.4c21 7 38.38 .75 41-.125l30.99-10.62c23.93-8.202 40.01-30.7 40.01-56V102.5zM520.5 178.2l-31 10.5c-1.5 .5-9.75 3-16.5-3.75L448 160h-32v80c0 26.12-12.62 49-32 63.63l-.0001 160.4L336 464V320L196.1 288.9L167.5 369l24 95H149.1l-21.12-87.88C127.6 370.8 127.8 365.2 129.3 360l22.75-76.75c-23.5-9.5-40-32.37-40-59.25c0-35.38 28.62-64 64-64l159.1 .0007L336 144c0-53 43-96 96-96h51.38l44.63 54.25v65.38C528 172.4 525 176.6 520.5 178.2z"/></svg>

<svg xmlns="http://www.w3.org/2000/svg" viewBox="0 0 576 512"><!-- Font Awesome Pro 6.0.0-alpha2 by @fontawesome - https://fontawesome.com License - https://fontawesome.com/license (Commercial License) --><path d="M464 80C455.125 80 448 87.125 448 96S455.125 112 464 112S480 104.875 480 96S472.875 80 464 80ZM576 102.491C576 91.28 572.112 80.416 565 71.75L543.25 45.25C559.239 39.879 572.357 26.518 575.868 9.659C576.903 4.688 572.952 0 567.875 0L432 0C363.625 0 306.125 48 291.625 112H176C137.875 112 104.25 131.25 84 160.375C37.375 162.5 0 200.875 0 248V296C0 309.255 10.745 320 24 320H24C37.255 320 48 309.255 48 296V248C48 234.75 54.875 223.625 64.75 216.375C64.625 218.875 64 221.375 64 224C64 254.125 75.875 282.125 96.125 302.625L83.25 346.375C79.25 359.625 78.875 373.75 82.125 387.25L106.25 487.5C109.75 501.875 122.625 512 137.375 512H212.125C232.974 512 248.25 492.375 243.135 472.164L217.625 371.375L227 345L288 358.5V480C288 497.6 302.4 512 320 512H400C417.6 512 432 497.6 432 480V324.375C452 301.875 463.25 273.25 464 242.75C464 241.875 464 234.375 464 234.375C485 241.375 502.375 235.125 505 234.25L535.994 223.627C559.925 215.425 576 192.923 576 167.625V102.491ZM520.5 178.25L489.5 188.75C488 189.25 479.75 191.75 473 185L448 160H416V240C416 266.125 403.375 289 384 303.625V464H336V320L196.125 288.875L167.5 369L191.5 464H150L128.875 376.125C127.625 370.75 127.75 365.25 129.25 360L152 283.25C128.5 273.75 112 250.875 112 224C112 188.625 140.625 160 176 160H336V144C336 91 379 48 432 48H483.375L528 102.25V167.625C528 172.375 525 176.625 520.5 178.25Z"/></svg>
